X:6135
T: Snowy Breasted Pearl, The
O:england
C:Trad.
S:Fiddler's Fakebook
I:speed 220
M:4/4
K:A
E | A3B AG FE | e3f e2 d2 | c2 A2 cB AG | F6 G2 |
A3B AG FE | e3f e2d2 | c2 A2 cB AG | A6 e2 |
f3 d a2 f2 | e2d2 c2e2 | d2c2B2A2 | F6 G2 |
A3B AG FE | e3f e2d2 | c2A2 cB AG | A6||
